svgs/sharp-solid/floppy-disks.svg

<svg xmlns="http://www.w3.org/2000/svg" viewBox="0 0 512 512"><!--! Font Awesome Pro 6.6.0 by @fontawesome - https://fontawesome.com License - https://fontawesome.com/license (Commercial License) Copyright 2024 Fonticons, Inc. --><path d="M96 0l24 0L384 0l9.9 0 7 7L505 111l7 7 0 9.9 0 264 0 24-24 0-368 0-24 0 0-24L96 24 96 0zM384 64L160 64l0 96 224 0 0-96zM368 288a64 64 0 1 0 -128 0 64 64 0 1 0 128 0zM48 120l0 344 344 0 24 0 0 48-24 0L24 512 0 512l0-24L0 120 0 96l48 0 0 24z"/></svg>

<svg xmlns="http://www.w3.org/2000/svg" viewBox="0 0 512 512"><!--! Font Awesome Pro 6.4.0 by @fontawesome - https://fontawesome.com License - https://fontawesome.com/license (Commercial License) Copyright 2023 Fonticons, Inc. --><path d="M96 0h24H384h9.9l7 7L505 111l7 7V128 392v24H488 120 96V392 24 0zM384 64H160v96H384V64zM368 288a64 64 0 1 0 -128 0 64 64 0 1 0 128 0zM48 120V464H392h24v48H392 24 0V488 120 96H48v24z"/></svg>
